U-commodities/img/icons/cup.svg

<svg width="50" height="50" viewBox="0 0 50 50" fill="none" xmlns="http://www.w3.org/2000/svg">
<path d="M40.2715 45H7.5V43.8177H40.2715V45ZM28.8015 41.7159H18.97C15.0309 41.7159 11.8258 38.5041 11.8258 34.5566V21.4204C11.8258 21.0936 12.0897 20.8292 12.4157 20.8292H35.3558C35.6819 20.8292 35.9457 21.0936 35.9457 21.4204V24.1133H38.633C40.7664 24.1133 42.5 25.8522 42.5 27.9885V31.2726C42.5 33.4105 40.7647 35.1478 38.633 35.1478H35.9228C35.6213 38.821 32.5424 41.7159 28.8015 41.7159ZM13.0056 22.0115V34.5566C13.0056 37.8522 15.6814 40.5337 18.97 40.5337H28.8015C32.0901 40.5337 34.7659 37.8522 34.7659 34.5566V22.0115H13.0056ZM35.9457 33.9655H38.633C40.1142 33.9655 41.3202 32.7586 41.3202 31.2726V27.9885C41.3202 26.5041 40.1159 25.2956 38.633 25.2956H35.9457V33.9655ZM31.03 18.1363H29.8502V16.0296C29.8502 15.1675 30.0534 14.3038 30.4368 13.5337C31.0513 12.3021 31.0513 10.8325 30.4368 9.60099C30.0534 8.83087 29.8502 7.96716 29.8502 7.10509V6.64204H31.0316V7.10673C31.0316 7.78654 31.1922 8.46798 31.4937 9.07389C32.2736 10.6371 32.2736 12.5008 31.4937 14.064C31.1905 14.67 31.0316 15.3514 31.0316 16.0312L31.03 18.1363ZM17.9213 18.1363H16.7416V16.0296C16.7416 15.1675 16.9448 14.3054 17.3298 13.5337C17.9443 12.3021 17.9443 10.8325 17.3298 9.60099C16.9448 8.82923 16.7416 7.96716 16.7416 7.10509V6.64204H17.9213V7.10673C17.9213 7.78654 18.0819 8.46634 18.3851 9.07389C19.165 10.6371 19.165 12.5008 18.3851 14.064C18.0819 14.6716 17.9213 15.3514 17.9213 16.0312V18.1363ZM24.4757 16.4943H23.2959V14.3875C23.2959 13.5255 23.4991 12.6634 23.8841 11.8916C24.4986 10.6601 24.4986 9.19048 23.8841 7.95895C23.4991 7.18719 23.2959 6.32512 23.2959 5.46305V5H24.4757V5.4647C24.4757 6.1445 24.6362 6.8243 24.9394 7.43186C25.721 8.99507 25.721 10.8588 24.9394 12.422C24.6362 13.0296 24.4757 13.7094 24.4757 14.3892V16.4943Z" fill="#353535"/>
</svg>

<svg width="50" height="50" fill="none" xmlns="http://www.w3.org/2000/svg"><path d="M40.272 45H7.5v-1.182h32.772V45zm-11.47-3.284H18.97c-3.94 0-7.144-3.212-7.144-7.16V21.42a.59.59 0 01.59-.59h22.94a.59.59 0 01.59.59v2.693h2.687a3.875 3.875 0 013.867 3.875v3.285a3.875 3.875 0 01-3.867 3.875h-2.71c-.302 3.673-3.38 6.568-7.122 6.568zM13.006 22.012v12.545c0 3.295 2.675 5.977 5.964 5.977h9.832c3.288 0 5.964-2.682 5.964-5.977V22.01h-21.76zm22.94 11.953h2.687a2.693 2.693 0 002.687-2.692v-3.285a2.693 2.693 0 00-2.687-2.692h-2.687v8.67zM31.03 18.136h-1.18V16.03c0-.863.203-1.726.587-2.496a4.425 4.425 0 000-3.933 5.632 5.632 0 01-.587-2.496v-.463h1.182v.465c0 .68.16 1.361.462 1.967a5.614 5.614 0 010 4.99 4.42 4.42 0 00-.462 1.967l-.002 2.105zm-13.109 0h-1.18V16.03c0-.863.204-1.725.589-2.496a4.425 4.425 0 000-3.933 5.617 5.617 0 01-.588-2.496v-.463h1.18v.465c0 .68.16 1.36.463 1.967a5.614 5.614 0 010 4.99 4.427 4.427 0 00-.464 1.967v2.105zm6.555-1.642h-1.18v-2.107c0-.862.203-1.724.588-2.495a4.425 4.425 0 000-3.933 5.617 5.617 0 01-.588-2.496V5h1.18v.465c0 .68.16 1.36.463 1.967a5.603 5.603 0 010 4.99 4.427 4.427 0 00-.463 1.967v2.105z" fill="#353535"/></svg>
